outputs/icons/social/remove_group_sharp.svg

<svg xmlns="http://www.w3.org/2000/svg" width="1200" height="1200" fill="none"><g fill="#000" clip-path="url(#a)"><path d="M400 750c116.5 0 350 58.5 350 175v125H50V925c0-116.5 233.5-175 350-175M800 750c116.5 0 350 58.5 350 175v125H850V925c0-74-40.49-130.51-98.485-172.51 17.495-1.5 33.99-2.49 48.485-2.49M400 350c83 0 149.51 67 149.51 150S483 650 400 650s-150-67-150-150 67-150 150-150M800 350c83 0 149.51 67 149.51 150S883 650 800 650s-150-67-150-150 67-150 150-150M1150 150v100H850V150z"/></g><defs><clipPath id="a"><path fill="#fff" d="M0 0h1200v1200H0z"/></clipPath></defs></svg>

<svg width="1200" height="1200" viewBox="0 0 1200 1200" fill="none" xmlns="http://www.w3.org/2000/svg"><g clip-path="url(#clip0_122_382)"><path d="M400 750C516.5 750 750 808.5 750 925V1050H50V925C50 808.5 283.5 750 400 750Z" fill="black"/><path d="M800 750C916.5 750 1150 808.5 1150 925V1050H850V925C850 851 809.51 794.49 751.515 752.49C769.01 750.99 785.505 750 800 750Z" fill="black"/><path d="M400 350C483 350 549.51 417 549.51 500C549.51 583 483 650 400 650C317 650 250 583 250 500C250 417 317 350 400 350Z" fill="black"/><path d="M800 350C883 350 949.51 417 949.51 500C949.51 583 883 650 800 650C717 650 650 583 650 500C650 417 717 350 800 350Z" fill="black"/><path d="M1150 150V250H850V150H1150Z" fill="black"/></g><defs><clipPath id="clip0_122_382"><path width="24" fill="white" d="M0 0H1200V1200H0V0z"/></clipPath></defs></svg>
